public/assets/images/icons/link.svg

<svg height="21.6382" width="21.8726" xmlns="http://www.w3.org/2000/svg"><path d="m0 0h21.8726v21.6382h-21.8726z" opacity="0"/><path d="m11.7322 6.47339-1.81154 1.81152c.96194.11231 1.77244.47363 2.29494.9961 1.5771 1.57229 1.5771 3.76949.0195 5.32719l-3.33983 3.33c-1.56738 1.5625-3.75 1.5625-5.31738-.0049-1.57715-1.5771-1.57715-3.7597-.01465-5.3271l1.25488-1.25c-.38086-.8643-.54199-1.9873-.2539-2.94922l-2.69043 2.66602c-2.504886 2.4853-2.495121 6.04.00976 8.5449 2.51465 2.5196 6.05469 2.5098 8.54495.0196l3.4961-3.4961c2.4951-2.4952 2.5-6.0401-.0147-8.54496-.4931-.49805-1.25-.92774-2.1777-1.12305zm-1.95314 8.55471 1.81154-1.8115c-.9619-.1075-1.77248-.4688-2.29494-.9913-1.57226-1.5771-1.57715-3.76949-.01465-5.32711l3.33499-3.33007c1.5674-1.56739 3.75-1.56739 5.3222.00488 1.5723 1.57226 1.5674 3.76465.0098 5.32226l-1.25 1.25004c.376.874.5322 1.9873.2539 2.9541l2.6904-2.6709c2.5-2.48538 2.4952-6.03519-.0097-8.54496-2.5196-2.514644-6.0596-2.504878-8.5547-.00976l-3.48634 3.48633c-2.49512 2.49511-2.5 6.03999.00977 8.54489.49804.4981 1.25.9278 2.17773 1.1231z" fill="#fff" fill-opacity=".85"/></svg>

<?xml version="1.0" encoding="UTF-8"?>
<!--Generator: Apple Native CoreSVG 232.5-->
<!DOCTYPE svg
PUBLIC "-//W3C//DTD SVG 1.1//EN"
       "http://www.w3.org/Graphics/SVG/1.1/DTD/svg11.dtd">
<svg version="1.1" xmlns="http://www.w3.org/2000/svg" xmlns:xlink="http://www.w3.org/1999/xlink" width="21.8726" height="21.6382">
 <g>
  <rect height="21.6382" opacity="0" width="21.8726" x="0" y="0"/>
  <path d="M11.7322 6.47339L9.92066 8.28491C10.8826 8.39722 11.6931 8.75854 12.2156 9.28101C13.7927 10.8533 13.7927 13.0505 12.2351 14.6082L8.89527 17.9382C7.32789 19.5007 5.14527 19.5007 3.57789 17.9333C2.00074 16.3562 2.00074 14.1736 3.56324 12.6062L4.81812 11.3562C4.43726 10.4919 4.27613 9.3689 4.56422 8.40698L1.87379 11.073C-0.631096 13.5583-0.621331 17.113 1.88355 19.6179C4.3982 22.1375 7.93824 22.1277 10.4285 19.6375L13.9246 16.1414C16.4197 13.6462 16.4246 10.1013 13.9099 7.59644C13.4168 7.09839 12.6599 6.6687 11.7322 6.47339ZM9.77906 15.0281L11.5906 13.2166C10.6287 13.1091 9.81812 12.7478 9.29566 12.2253C7.7234 10.6482 7.71851 8.45581 9.28101 6.89819L12.616 3.56812C14.1834 2.00073 16.366 2.00073 17.9382 3.573C19.5105 5.14526 19.5056 7.33765 17.948 8.89526L16.698 10.1453C17.074 11.0193 17.2302 12.1326 16.9519 13.0994L19.6423 10.4285C22.1423 7.94312 22.1375 4.39331 19.6326 1.88354C17.113-0.631104 13.573-0.621338 11.0779 1.87378L7.59156 5.36011C5.09644 7.85522 5.09156 11.4001 7.60133 13.905C8.09937 14.4031 8.85133 14.8328 9.77906 15.0281Z" fill="#ffffff" fill-opacity="0.85"/>
 </g>
</svg>
